src/assets/bold/lm-free-hand-highlight-bold.svg

<svg width="24" height="24" viewBox="0 0 24 24" fill="none" xmlns="http://www.w3.org/2000/svg" fill="currentColor">
<path fill-rule="evenodd" clip-rule="evenodd" d="M3 20.2266C3 19.7995 3.35258 19.4532 3.78751 19.4532L20.2125 19.4532C20.6474 19.4532 21 19.7994 21 20.2266C21 20.6537 20.6474 20.9999 20.2125 20.9999L3.78751 21C3.35258 21 3 20.6537 3 20.2266Z" fill="black"/>
<path fill-rule="evenodd" clip-rule="evenodd" d="M11.4507 3.10353C11.0899 2.89441 10.6248 3.01209 10.4119 3.36637L3.86886 14.2526C3.7666 14.4227 3.73735 14.6258 3.78755 14.8171L4.54454 17.7024C4.64906 18.1008 5.06264 18.3405 5.4683 18.2379L8.40632 17.4944C8.60112 17.4451 8.768 17.3219 8.87026 17.1517L15.4133 6.26554C15.6263 5.91126 15.5064 5.45454 15.1457 5.24542L11.4507 3.10353ZM5.82457 16.6093L5.33521 14.7441L9.51549 7.78906L11.9041 9.17368L7.72384 16.1288L5.82457 16.6093ZM13.7215 6.14975L12.6751 7.89075L10.2865 6.50613L11.3329 4.76513L13.7215 6.14975Z" fill="black"/>
</svg>

<svg xmlns="http://www.w3.org/2000/svg" width="24" height="24" fill="currentColor" viewBox="0 0 24 24">
  <path d="M3 20.227a.78.78 0 0 1 .788-.774h16.424a.78.78 0 0 1 .788.774.78.78 0 0 1-.788.773H3.788A.78.78 0 0 1 3 20.227Zm8.45-17.123a.766.766 0 0 0-1.038.262L3.869 14.253a.733.733 0 0 0-.081.564l.757 2.885a.76.76 0 0 0 .923.536l2.938-.744a.757.757 0 0 0 .464-.342l6.543-10.886a.737.737 0 0 0-.267-1.02L11.45 3.103ZM5.826 16.609l-.49-1.865 4.18-6.955 2.39 1.385-4.181 6.955-1.9.48Zm7.897-10.46-1.047 1.742-2.389-1.385 1.047-1.74 2.389 1.384Z"/>
</svg>
